X:1
T:Title
%%score { ( 1 3 ) | ( 2 4 ) }
L:1/8
M:6/8
K:Eb
V:1 treble nm="Grand Piano"
V:3 treble 
V:2 bass 
V:4 bass 
V:1
 z3 z2[Q:1/4=100] E | E2 G B2 [EGB] | A3- [Ae]2 e | BcB GFE | [DF]2 G [B,DF]2 E | E2 G B2 [EGB] | %6
 .[EBe]3 [EAc]2 [Ec] | E2- [EG] D2- [DG] | [G,E]6 | [CE]2 A A2 c | [GB]3- [GB]2 B | [Fd]2 F FG=A | %12
 c3 B2 [DB] | [EB]2 [EB] [G=B]2 [FB] | .[Ec]3 [A,FA]2 [CEF] | [B,EG]3 [A,DF]3 | %16
[M:5/8] [G,E]-[G,E]- [G,E]3 |] %17
V:2
 z3 z2 E, | E,2 G, B,2 E, | z3[K:treble] C2 [A,CE] | E-[A,E][G,B,E][K:bass] B,-[D,B,][C,=A,C] | %4
 z2 E B,,2 E, | E,2 G, B,2 E, | z2[K:treble] d A,2[K:bass] [A,,A,] | B,,2- [B,,B,] z2 B, | %8
 E,3- E,2 E | z2 C C2 E | z3 z2[K:treble] G | z2 D E2 E | [F,E]3 [B,D]2 [B,,B,] | %13
 [E,G,]2 [E,G,] [D,G,]2 [D,G,] | z2[K:treble] B[K:bass] F,2 A,, | B,,3 B,,3 |[M:5/8] E,-E,- E,3 |] %17
V:3
 x6 | x6 | [Ec]3 z3 | x6 | x6 | x6 | x6 | .B3 .[A,F]3 | x6 | x6 | x6 | x6 | x6 | x6 | x6 | x6 | %16
[M:5/8] x5 |] %17
V:4
 x6 | x6 | A,6[K:treble] | .G,3[K:bass] .[E,E]3 | [B,,B,]3 z3 | x6 | G,3[K:treble] z3[K:bass] | %7
 .G,3 B,,3 | x6 | A,,6 | E,6[K:treble] | F,6 | x6 | x6 | [C,G,]3[K:treble][K:bass] z3 | x6 | %16
[M:5/8] x5 |] %17

